X:106
T:Menuet in D minor (HWV 132c)
C:Handel, G.F.
M:3/4
L:1/8
Q:1/4=100
K:Dmin
|:A|d3 cd|e2 dc B2|c4 Bc|d4 A2|
d3 ef|g2 fe d2|A2 GF ED|D4:|

